!!!COM: Schubert, Franz
!!!CDT: 1797/01/31/-1828/11/19/
!!!CNT: Austrian
!!!OTL: Trio for violin, viola and violon cello
!!!ODT: 1816/09//
**kern	**dynam	**kern	**dynam	**kern	**dynam
*staff3	*staff3	*staff2	*staff2	*staff1	*staff1
*Icello	*Icello	*Iviola	*Iviola	*Ivioln	*Ivioln
*>[A,A,B,B]	*>[A,A,B,B]	*>[A,A,B,B]	*>[A,A,B,B]	*>[A,A,B,B]	*>[A,A,B,B]
*>norep[A,B]	*>norep[A,B]	*>norep[A,B]	*>norep[A,B]	*>norep[A,B]	*>norep[A,B]
*>A	*>A	*>A	*>A	*>A	*>A
*clefF4	*clefF4	*clefC3	*clefC3	*clefG2	*clefG2
*k[b-e-]	*k[b-e-]	*k[b-e-]	*k[b-e-]	*k[b-e-]	*k[b-e-]
*met(C)	*met(C)	*met(C)	*met(C)	*met(C)	*met(C)
*M4/4	*M4/4	*M4/4	*M4/4	*M4/4	*M4/4
*MM160	*MM160	*MM160	*MM160	*MM160	*MM160
=1-	=1-	=1-	=1-	=1-	=1-
[1B-	pp	(8d\L	pp	([2b-\	pp
.	.	8f\	.	.	.
.	.	8d\	.	.	.
.	.	8f\J)	.	.	.
.	.	(8d\L	.	8b-\L]	.
.	.	8f\	.	8dd\)	.
.	.	8e-\	.	8cc'\	.
.	.	8c\J)	.	8a'\J	.
=2	=2	=2	=2	=2	=2
(2.B-\]	.	(8d\L	.	4b-'\	.
.	.	8f\	.	.	.
.	.	8b-\	.	4dd'\	.
.	.	8f\J)	.	.	.
.	.	(8d\L	.	4ff'\	.
.	.	8f\	.	.	.
4A\)	.	8c\	.	4r	.
.	.	8f\J)	.	.	.
=3	=3	=3	=3	=3	=3
4G'\	.	(8B-\L	.	(2.bb-\	.
.	.	8d\	.	.	.
4B-'\	.	8g\	.	.	.
.	.	8d\J)	.	.	.
4d'\	.	(8B-\L	.	.	.
.	.	8d\	.	.	.
4En'\	.	8B-\	.	8aa\L	.
.	.	8d\J)	.	8gg\J)	.
=4	=4	=4	=4	=4	=4
4F\	.	(8F/L	.	(8gg\L	.
.	.	8d/)	.	8ff\)	.
4r	.	8c'/	.	8ee-'\	.
.	.	8B-'/J	.	8dd'\J	.
4FF/	.	(8f\L	.	(8dd\L	.
.	.	8e-\)	.	8cc\)	.
4r	.	8d'\	.	8b-'\	.
.	.	8c'\J	.	8a'\J	.
=5	=5	=5	=5	=5	=5
[1B-	.	(8d\L	.	([2b-\	.
.	.	8f\	.	.	.
.	.	8d\	.	.	.
.	.	8f\J)	.	.	.
.	.	(8d\L	.	8b-\L]	.
.	.	8f\	.	8dd\)	.
.	.	8e-\	.	8cc'\	.
.	.	8c\J)	.	8a'\J	.
=6	=6	=6	=6	=6	=6
(2.B-\]	.	(8d\L	.	4b-'\	.
.	.	8f\	.	.	.
.	.	8b-\	.	4dd'\	.
.	.	8f\J)	.	.	.
.	.	(8d\L	.	4ff'\	.
.	.	8f\	.	.	.
4A\)	.	8c\	.	4r	.
.	.	8f\J)	.	.	.
=7	=7	=7	=7	=7	=7
4G\	.	(8B-\L	.	(2.bb-\	.
.	.	8d\	.	.	.
4B-'\	.	8g\	.	.	.
.	.	8d\J)	.	.	.
4d'\	.	(8B-\L	.	.	.
.	.	8d\	.	.	.
4En'\	.	8B-\	.	8aa\L	.
.	.	8d\J)	.	8gg\J)	.
=8	=8	=8	=8	=8	=8
4F\	.	(8F/L	.	(8gg\L	.
.	.	8d/)	.	8ff\)	.
4r	.	8c'/	.	8ee-'\	.
.	.	8B-'/J	.	8dd'\J	.
4FF/	.	(8f\L	.	(8dd\L	.
.	.	8e-\)	.	8cc\)	.
4r	.	8d'\	.	8b-'\	.
.	.	8c'\J	.	8a'\J	.
=9	=9	=9	=9	=9	=9
4BB-'/	f	4B-'/	f	4b-'\	f
4D'\	.	4d'\	.	4dd'\	.
4F'\	.	4f'\	.	4ff'\	.
4r	.	4r	.	4r	.
=10	=10	=10	=10	=10	=10
4D\	.	4d\	.	4dd\	.
(8.F\L	.	(8.f\L	.	(8.ff\L	.
32En\LL	.	32en\LL	.	32een\LL	.
32F\JJJ)	.	32f\JJJ)	.	32ff\JJJ)	.
4B-\	.	4b-\	.	4bb-\	.
4r	.	4r	.	4r	.
=11	=11	=11	=11	=11	=11
(2B-\	p	([2F/ 2d/	p	12bb-'\L	p
.	.	.	.	12ddd'\	.
.	.	.	.	12ccc'\J	.
.	.	.	.	12bb-'\L	.
.	.	.	.	12aa'\	.
.	.	.	.	12gg'\J	.
4A\)	.	4F/] 4e-/	.	12ff'\L	.
.	.	.	.	12gg'\	.
.	.	.	.	12ff'\J	.
4e-\	.	4A/)	.	12ee-'\L	.
.	.	.	.	12dd'\	.
.	.	.	.	12cc'\J	.
=12	=12	=12	=12	=12	=12
4BB-'/	f	4B-'/	f	4b-'\	f
4D'\	.	4d'\	.	4dd'\	.
4F'\	.	4f'\	.	4ff'\	.
4r	.	4r	.	4r	.
=13	=13	=13	=13	=13	=13
4D\	.	4d\	.	4dd\	.
(8.F\L	.	(8.f\L	.	(8.ff\L	.
32En\LL	.	32en\LL	.	32een\LL	.
32F\JJJ)	.	32f\JJJ)	.	32ff\JJJ)	.
4B-\	.	4b-\	.	4bb-\	.
4r	.	4r	.	4r	.
=14	=14	=14	=14	=14	=14
(2d\	p	[2F/ (2B-/	p	12bb-'\L	p
.	.	.	.	12ddd'\	.
.	.	.	.	12ccc'\J	.
.	.	.	.	12bb-'\L	.
.	.	.	.	12aa'\	.
.	.	.	.	12gg'\J	.
4e-\	.	4F/] 4A/	.	12ff'\L	.
.	.	.	.	12gg'\	.
.	.	.	.	12ff'\J	.
4A\)	.	4e-\)	.	12ee-'\L	.
.	.	.	.	12dd'\	.
.	.	.	.	12cc'\J	.
=15	=15	=15	=15	=15	=15
4B-\	.	8d\L	.	4b-\	.
.	.	8b-\	.	.	.
4r	.	8b-\	.	4r	.
.	.	8b-\J	.	.	.
4r	.	8b-\L	.	4r	.
.	.	8b-\	.	.	.
*clefC4	*clefC4	*	*	*	*
4B-\	.	8b-\	.	4b-'\	.
.	.	8b-\J	.	.	.
=16	=16	=16	=16	=16	=16
(1a-	.	8b-\L	.	(2.ff\	<
.	.	8b-\	.	.	.
.	.	8b-\	.	.	.
.	.	8b-\J	.	.	.
.	.	8b-\L	.	.	.
.	.	8b-\	.	.	.
.	.	8b-\	.	4gg\)	.
.	.	8b-\J	.	.	.
=17	=17	=17	=17	=17	=17
(2.g\)	.	8b-\L	.	(2ff\	.
.	.	8b-\	.	.	.
.	.	8b-\	.	.	.
.	.	8b-\J	.	.	.
.	.	8b-\L	.	4ee-\	.
.	.	8b-\	.	.	.
4f\)	.	8b-\	.	4dd\)	.
.	.	8b-\J	.	.	.
=18	=18	=18	=18	=18	=18
2e-\	.	8b-\L	.	2cc\	.
.	.	8b-\	.	.	.
.	.	8b-\	.	.	.
.	.	8b-\J	.	.	.
2f\	.	8b-\L	.	(4.dd\	.
.	.	8b-\	.	.	.
.	.	8b-\	.	.	.
.	.	8b-\J	.	16cc\LL	.
.	.	.	.	16dd\JJ)	.
=19	=19	=19	=19	=19	=19
2g\	.	8b-\L	.	2ee-\	.
.	.	8b-\	.	.	.
.	.	8b-\	.	.	.
.	.	8b-\J	.	.	.
4r	.	8b-\L	.	4r	.
.	.	8b-\	.	.	.
4B-\	.	8b-\	.	4b-\	.
.	.	8b-\J	.	.	.
=20	=20	=20	=20	=20	=20
(1a-	.	8b-\L	.	(2.ff\	.
.	.	8b-\	.	.	.
.	.	8b-\	.	.	.
.	.	8b-\J	.	.	.
.	.	8cc-\L	.	.	.
.	.	8cc-\	.	.	.
.	.	8cc-\	.	4gg\)	.
.	.	8cc-\J	.	.	.
=21	=21	=21	=21	=21	=21
(2g\)	.	8b-\L	.	(2ff\	.
.	.	8b-\	.	.	.
.	.	8b-\	.	.	.
.	.	8b-\J	.	.	.
4g-\	.	8b-\L	.	4ee-\	.
.	.	8b-\	.	.	.
4f\)	.	8b-\	.	4dd\)	.
.	.	8b-\J	.	.	.
=22	=22	=22	=22	=22	=22
2e-\	.	8b-\L	.	2cc\	>
.	.	8b-\	.	.	.
.	.	8b-\	.	.	.
.	.	8b-\J	.	.	.
(2en\	.	8b-\L	.	(2dd-\	.
.	.	8b-\	.	.	.
.	.	8b-\	.	.	.
.	.	8b-\J	.	.	.
=23	=23	=23	=23	=23	=23
4f\)	.	8a\L	.	4cc\)	.
.	.	8f\	.	.	.
4r	.	8f\	.	4r	.
.	.	8f\J	.	.	.
4r	.	4f\	.	4r	.
(4d\	>	(4f\	.	(4ff\	>
=24	=24	=24	=24	=24	=24
4d-\	.	4g\	.	4een\	.
4c\	.	4a\	.	4ee-\	.
4B-\)	.	(2b-\)	>	4dd\	.
(4En/	.	.	.	4dd-\	.
=25	=25	=25	=25	=25	=25
4F/)	.	(8a\L)	.	4cc\)	.
.	.	8f\)	.	.	.
4r	.	8f'\	.	4r	.
.	.	8f'\J	.	.	.
4r	.	4f\	.	4r	.
(4A/	pp	(4F/	pp	(4f/	pp
=26	=26	=26	=26	=26	=26
*clefF4	*clefF4	*	*	*	*
4D-/	.	4G/	.	4en/	.
4C/	.	4A/	.	4e-/	.
4BB-/)	.	(2B-/)	.	4d/	.
(4EEn/	.	.	.	4d-/	.
=27	=27	=27	=27	=27	=27
4FF/)	.	4A/)	.	4c/)	.
4r	.	4r	.	4r	.
2r	.	2r	.	2r	.
=28	=28	=28	=28	=28	=28
1r	.	1r	.	(4c/	p
.	.	.	.	4f/	.
.	.	.	.	4a/	.
.	.	.	.	4cc\	.
=29	=29	=29	=29	=29	=29
4r	.	4r	.	4een\	.
(4f\	p	(4a\	p	4ff\	.
4c\	.	4f\	.	4aa\	.
4A\)	.	4c\)	.	4ccc\)	.
=30	=30	=30	=30	=30	=30
8G\	.	8B-/	.	(8ccc\L	.
8r	.	8r	.	&(16een\Jk&))	.
.	.	.	.	16r	.
(4g'\	.	(4b-'\	.	8ee'\L	.
.	.	.	.	8ff'\J	.
4g'\	.	4b-'\	.	8ee'\L	.
.	.	.	.	8ff'\	.
4g'\)	.	4b-'\)	.	8ee'\	.
.	.	.	.	8ff'\J	.
=31	=31	=31	=31	=31	=31
4g\	.	4b-\	.	4een\	.
4r	.	4r	.	4r	.
2r	.	2r	.	([4ddd\	p
.	.	.	.	24ddd\LL]	.
.	.	.	.	24ccc\	.
.	.	.	.	24bb-\	.
.	.	.	.	24aa\	.
.	.	.	.	24gg\	.
.	.	.	.	24ff\JJ)	.
=32	=32	=32	=32	=32	=32
2r	.	2r	.	4een'\	.
.	.	.	.	4r	.
([4d\	f	([4dd\	f	([4dd\	f
24d\LL]	.	24dd\LL]	.	24dd/LL]	.
24c\	.	24cc\	.	24cc/	.
24B-\	.	24b-\	.	24b-/	.
24A\	.	24a\	.	24a/	.
24G\	.	24g\	.	24g/	.
24F\JJ)	.	24f\JJ)	.	24f/JJ)	.
=33	=33	=33	=33	=33	=33
4En'\	.	4en'\	.	4en'/	.
4r	.	4r	.	(4g/	p
2r	.	2r	.	4b-\	.
.	.	.	.	4cc\)	.
=34	=34	=34	=34	=34	=34
4r	.	4r	.	(4een\	.
(4g\	p	(4b-\	p	4gg\	.
4en\	.	4g\	.	4bb-\	.
4B-\)	.	4en\)	.	4ddd\)	.
=35	=35	=35	=35	=35	=35
8A\	.	8f\	.	(8ddd\L	.
8r	.	8r	.	16ff\Jk)	.
.	.	.	.	16r	.
*clefC4	*clefC4	*	*	*	*
(4a'\	.	(4cc'\	.	8ff'\L	.
.	.	.	.	8gg'\J	.
4a'\	.	4cc'\	.	8ff'\L	.
.	.	.	.	8gg'\	.
4a'\)	.	4cc'\)	.	8ff'\	.
.	.	.	.	8gg'\J	.
=36	=36	=36	=36	=36	=36
4a\	.	4cc\	.	4ff\	.
4r	.	4r	.	4r	.
2r	.	2r	.	([4aa\	>
.	.	.	.	8aa\L]	.
.	.	.	.	32gg\LL	.
.	.	.	.	32ff\	.
.	.	.	.	32een\	.
.	.	.	.	32dd\JJJ)	.
=37	=37	=37	=37	=37	=37
2r	.	2r	.	4cc\	.
.	.	.	.	4r	.
*clefF4	*clefF4	*	*	*	*
([4F\	f	([4f\	f	([4ff\	>
32F/LLL]	.	32f/LLL]	.	32ff/LLL]	.
32En/	.	32en/	.	32een/	.
32D/	.	32d/	.	32dd/	.
32C/	.	32c/	.	32cc/	.
32BB-/	.	32B-/	.	32b-/	.
32AA/	.	32A/	.	32a/	.
32GG/	.	32G/	.	32g/	.
32FF/JJJ)	.	32F/JJJ)	.	32f/JJJ)	.
=38	=38	=38	=38	=38	=38
4EE-/	.	4E-/	.	(8e-/L	.
.	.	.	.	8f/)	.
(4E-'\	p	4A'\ (4f'\	p	8a'/	.
.	.	.	.	8cc'/J	.
4E-'\	.	4A'\ 4f'\	.	8ff'\L	.
.	.	.	.	8aa'\	.
4E-'\)	.	4A'\ 4f'\)	.	8ccc'\	.
.	.	.	.	8fff'\J	.
=39	=39	=39	=39	=39	=39
(8DD/L	f	(8F/L	f	(2fff\	>
8FF/)	.	8B-/)	.	.	.
8BB-'/	.	8d'/	.	.	.
8D'/J	.	8f'/J	.	.	.
(8F\L	.	(8b-\L	.	4ddd\)	.
8B-\)	.	8dd\)	.	.	.
8d'\	.	8ff'\	.	4bb-\	.
8D'\J	.	8f'\J	.	.	.
=40	=40	=40	=40	=40	=40
4c\	.	(8f\L	.	(8aa\L	.
.	.	8a\)	.	8ccc\)	.
4r	.	8b-'\	.	8ddd'\	.
.	.	8a'\J	.	8ccc'\J	.
4C/	.	(8a\L	.	(8ccc\L	.
.	.	8g\)	.	8bb-\)	.
4r	.	8f'\	.	8aa'\	.
.	.	8en'\J	.	8gg'\J	.
=41	=41	=41	=41	=41	=41
4F\	.	8f\L	.	4ff\	.
.	.	8c\	p	.	.
4r	.	8c\	.	4r	.
.	.	8c\J	.	.	.
.	.	.	.	(ffq/LL	.
.	.	.	.	ggq/JJ	.
4r	.	8c\L	.	4aa'\)	p
.	.	8c\	.	.	.
.	.	.	.	ffq/LL	.
.	.	.	.	ggq/JJ	.
4F\	p	8c\	.	4aa'\	.
.	.	8c\J	.	.	.
=42	=42	=42	=42	=42	=42
(2En\	.	8c\L	.	(4.bb-\	.
.	.	8c\	.	.	.
.	.	8c\	.	.	.
.	.	8c\J	.	16ccc\LL	.
.	.	.	.	16bb-\JJ	.
4G\	.	8c\L	.	8aa\L	.
.	.	8c\	.	8gg\	.
4B-\)	.	8c\	.	8ff\	.
.	.	8c\J	.	8een\J)	.
=43	=43	=43	=43	=43	=43
(4B-\	.	8c\L	.	(4gg\	.
.	.	8c\	.	.	.
8A\)	.	8c\	.	8ff\)	.
8r	.	8c\J	.	8r	.
Fq/LL	.	.	.	.	.
Gq/JJ	.	.	.	.	.
4A'\	.	8c\L	.	(4ccc\	.
.	.	8c\	.	.	.
(Fq/LL	.	.	.	.	.
Gq/JJ	.	.	.	.	.
4A'\)	.	8c\	.	4ff\)	.
.	.	8c\J	.	.	.
=44	=44	=44	=44	=44	=44
(4.B-\	.	8c\L	.	(2een\	.
.	.	8c\	.	.	.
.	.	8c\	.	.	.
16c\LL	.	8c\J	.	.	.
16B-\JJ	.	.	.	.	.
8A\L	.	8c\L	.	8ff\L	.
8G\	.	8c\	.	8gg\	.
8F\	.	8c\	.	8aa\	.
8En\J)	.	8c\J	.	8bb-\J)	.
=45	=45	=45	=45	=45	=45
(4G\	.	8c\L	.	(4bb-\	.
.	.	8c\	.	.	.
8F\)	.	8c\	.	8aa\)	.
8r	.	8c\J	.	8r	.
(2d\	.	2f#\	.	(4.ccc\	>
.	.	.	.	16ddd\LL	.
.	.	.	.	16ccc\JJ)	.
=46	=46	=46	=46	=46	=46
2G\)	.	(4.fn\	.	2bbn\	.
.	.	16g\LL	.	.	.
.	.	16f\JJ)	.	.	.
(2c\	.	2en\	.	(4.bb-\	>
.	.	.	.	16ccc\LL	.
.	.	.	.	16bb-\JJ)	.
=47	=47	=47	=47	=47	=47
(4F\)	<	(4.e-\	<	(2aa\	<
4F#\)	.	.	.	.	.
.	.	16f\LL	.	.	.
.	.	16e-\JJ)	.	.	.
(4G\	>	(8d\L	>	(8ccc\L)	>
.	.	8dd\	.	8bb-\	.
8A\L	.	8cc\	.	8aa\	.
&(8B-\J&))	.	8b-\J)	.	8gg\J)	.
=48	=48	=48	=48	=48	=48
4c\	.	(8a\L	.	(8ff\L	.
.	.	8cc\)	.	8een\)	.
4r	.	8b-'\	.	8dd'\	.
.	.	8a'\J	.	8cc'\J	.
4C/	.	(8a\L	.	(8cc/L	.
.	.	8g\)	.	8b-/)	.
4r	.	8f'\	.	8a'/	.
.	.	8c'\J	.	8g'/J	.
=49	=49	=49	=49	=49	=49
4F\	.	4A/	.	8f/L	.
.	.	.	.	8ccc\	.
4r	.	4r	.	8ccc\	.
.	.	.	.	8ccc\J	.
.	.	(fq/LL	.	.	.
.	.	gq/JJ)	.	.	.
4r	.	4a'\	.	8ccc\L	.
.	.	.	.	8ccc\	.
.	.	(fq/LL	.	.	.
.	.	gq/JJ	.	.	.
4F\	.	4a'\)	.	8ccc\	.
.	.	.	.	8ccc\J	.
=50	=50	=50	=50	=50	=50
(2En\	.	(4.b-\	.	8ccc\L	.
.	.	.	.	8ccc\	.
.	.	.	.	8ccc\	.
.	.	16cc\LL	.	8ccc\J	.
.	.	16b-\JJ	.	.	.
4G\	.	8a\L	.	8ccc\L	.
.	.	8g\	.	8ccc\	.
4B-\)	.	8f\	.	8ccc\	.
.	.	8en\J)	.	8ccc\J	.
=51	=51	=51	=51	=51	=51
(4B-\	.	(4g\	.	8ccc\L	.
.	.	.	.	8ccc\	.
8A\)	.	8f\)	.	8ccc\	.
8r	.	8r	.	8ccc\J	.
Fq/LL	.	.	.	.	.
Gq/JJ	.	.	.	.	.
4A'\	.	(4cc\	.	8ccc\L	.
.	.	.	.	8ccc\	.
Fq/LL	.	.	.	.	.
Gq/JJ	.	.	.	.	.
4A'\	.	4f\)	.	8ccc\	.
.	.	.	.	8ccc\J	.
=52	=52	=52	=52	=52	=52
(4.B-\	.	(2en\	.	8ccc\L	.
.	.	.	.	8ccc\	.
.	.	.	.	8ccc\	.
16c\LL	.	.	.	8ccc\J	.
16B-\JJ	.	.	.	.	.
8A\L	.	8f\L	.	8ccc\L	.
8G\	.	8g\	.	8ccc\	.
8F\	.	8a\	.	8ccc\	.
8En\J)	.	8b-\J)	.	8ccc\J	.
=53	=53	=53	=53	=53	=53
(4G\	.	(4b-\	.	8ccc\L	.
.	.	.	.	8ccc\	.
8F\)	.	8a\)	.	8ccc\	.
8r	.	8r	.	8ccc\J	.
(2d\	.	2f#\	.	(4.ccc\	.
.	.	.	.	16ddd\LL	.
.	.	.	.	16ccc\JJ)	.
=54	=54	=54	=54	=54	=54
2G\)	.	(4.fn\	.	2bbn\	.
.	.	16g\LL	.	.	.
.	.	16f\JJ)	.	.	.
(2c\	.	2en\	.	(4.bb-\	.
.	.	.	.	16ccc\LL	.
.	.	.	.	16bb-\JJ)	.
=55	=55	=55	=55	=55	=55
(4F\)	<	(4.e-\	<	(2aa\	<
4F#\)	.	.	.	.	.
.	.	16f\LL	.	.	.
.	.	(16e-\JJ)	.	.	.
(4G\	>	8d\L	>	(8ccc\L)	>
.	.	8dd\	.	8bb-\	.
8A\L	.	8cc\	.	8aa\	.
8B-\J)	.	&(8b-\J&))	.	8gg\J)	.
=56	=56	=56	=56	=56	=56
4c\	.	(8a\L	.	(8ff\L	.
.	.	8cc\)	.	8een\)	.
4r	.	8b-'\	.	8dd'\	.
.	.	8a'\J	.	8cc'\J	.
4C/	.	(8a\L	.	(8cc/L	.
.	.	8g\)	.	8b-/)	.
4r	.	8f'\	.	8a'/	.
.	.	8c'\J	.	8g'/J	.
=57	=57	=57	=57	=57	=57
4F\	.	4A/	.	12f'/L	.
.	.	.	.	12c'/	.
.	.	.	.	12f'/J	.
4r	.	12f'\L	.	12a'\L	.
.	.	12a'\	.	12cc'\	.
.	.	12cc'\J	.	12ff'\J	.
12f\L	.	12ff\L	<	12aa\L	<
12f\	.	12ff\	.	12aa\	.
12f\J	.	12ff\J	.	12aa\J	.
12en\L	<	12gg\L	.	12ccc#\L	.
12e\	.	12gg\	.	12ccc#\	.
12e\J	.	12gg\J	.	12ccc#\J	.
=58	=58	=58	=58	=58	=58
12d\L	.	12ff\L	.	12ddd\L	>
12d\	.	12ff\	.	12ddd\	.
12d\J	.	12ff\J	.	12ddd\J	.
12cn\L	>	12ff#\L	>	12eee-\L	.
12c\	.	12ff#\	.	12eee-\	.
12c\J	.	12ff#\J	.	12eee-\J	.
12B-\L	.	12gg\L	.	12ddd\L	.
12B-\	.	12gg\	.	12ddd\	.
12B-\J	.	12gg\J	.	12ddd\J	.
12F#\L	.	12ee-\L	.	12cccn\L	.
12F#\	.	12ee-\	.	12ccc\	.
12F#\J	.	12ee-\J	.	12ccc\J	.
=59	=59	=59	=59	=59	=59
8G\	.	8dd\	.	8bb-\	.
8r	.	8r	.	8r	.
4r	.	4r	.	4r	.
.	.	gq/LLL	.	bb-q/LLL	.
.	.	aq/JJJ	.	cccq/JJJ	.
8en\	pp	4b-^\	pp	4ddd^\	pp
8r	.	.	.	.	.
4r	.	8b-\L	.	8ddd\L	.
.	.	8b-\J	.	8ddd\J	.
=60	=60	=60	=60	=60	=60
4f^\	.	(8b-\L	.	(8ddd\L	.
.	.	8a\J)	.	8ccc\J)	.
8f'\L	.	4r	.	4r	.
8f'\J	.	.	.	.	.
.	.	gq/LLL	.	bb-q/LLL	.
.	.	aq/JJJ	.	cccq/JJJ	.
(8f^\L	.	4b-^\	.	4ddd^\	.
8en\J)	.	.	.	.	.
4r	.	8b-'\L	.	8ddd'\L	.
.	.	8b-'\J	.	8ddd'\J	.
=61	=61	=61	=61	=61	=61
4f^\	.	(8b-\L	.	(8ddd\L	.
.	.	8a\J)	.	8ccc\J)	.
8f\L	.	4r	.	4r	.
8f\J	.	.	.	.	.
.	.	gq/LLL	.	(b-q/LLL	.
.	.	aq/JJJ	.	ccq/JJJ)	.
(8f\L	.	4b-\	.	4dd\	.
8en\J)	.	.	.	.	.
4r	.	8b-'\L	.	8dd'\L	.
.	.	8b-'\J	.	8dd'\J	.
=62	=62	=62	=62	=62	=62
4f\	.	(8b-^\L	.	8dd^\L	.
.	.	8a\J)	.	8cc\J	.
8f#'\L	.	8cc'\L	.	8ee-'\L	.
8f#'\J	.	8cc'\J	.	8ee-'\J	.
(8f#^\L	.	(8cc^\L	.	(8ee-^\L	.
8g\J)	.	8b-\J)	.	8dd\J)	.
8e-'\L	.	8a'\L	.	8gg'\L	.
8e-'\J	.	8a'\J	.	8gg'\J	.
=63	=63	=63	=63	=63	=63
(8e-^\L	.	(8a^\L	.	(8gg^\L	.
8d\J)	.	8b-\J)	.	8ff\J)	.
8f#'\L	.	8cc'\L	.	8ee-'\L	.
8f#'\J	.	8cc'\J	.	8ee-'\J	.
(8f#^\L	.	(8cc^\L	.	(8ee-^\L	.
8g\J)	.	8b-\J)	.	8dd\J)	.
8e-'\L	.	8a'\L	.	8gg'\L	.
8e-'\J	.	8a'\J	.	8gg'\J	.
=64	=64	=64	=64	=64	=64
(8e-\L	<	(8a\L	<	(8gg\L	<
8d\J)	.	8b-\J)	.	8ff\J	.
8e-'\L	.	8a'\L	.	8gg'\L)	.
8e-'\J	.	8a'\J	.	8gg'\J	.
(8e-\L	.	(8a\L	.	(8gg\L	.
8d\J)	.	8b-\J)	.	8ff\J)	.
8e-'\L	.	8a'\L	.	8gg'\L	.
8e-'\J	.	8a'\J	.	8gg'\J	.
=65	=65	=65	=65	=65	=65
(2.e-\	.	(2.a\	.	(2.gg\	.
4A\)	.	4ee-\)	.	4gg-\)	.
=66	=66	=66	=66	=66	=66
4B-\	.	4dd\	.	4ff\	.
4r	.	4r	.	4r	.
4r	.	4r	.	4r	.
8Bn\L	f	8g#\L	f	8f'/ 8dd'/L	f
8B\J	.	8g#\J	.	8f'/ 8dd'/J	.
=67	=67	=67	=67	=67	=67
4c\	.	4a\	.	(8f/ 8dd/L	.
.	.	.	.	8cc/J)	.
4r	.	4r	.	4r	.
4C/	.	4B-/	.	(8cc/L	.
.	.	.	.	8en/J)	.
4r	.	4r	.	4r	.
=68	=68	=68	=68	=68	=68
(4FF/	pp	1A 1f	pp	4f/	pp
4AA/	.	.	.	8ccc'\L	.
.	.	.	.	8ccc'\J	.
4C/	.	.	.	(8ccc\L	.
.	.	.	.	8ff\J)	.
4F\)	.	.	.	4r	.
=69	=69	=69	=69	=69	=69
(4G-\	.	1B- 1en	.	4r	.
4D-\	.	.	.	8ddd-'\L	.
.	.	.	.	8ddd-'\J	.
4BB-/	.	.	.	(8ddd-\L	.
.	.	.	.	8een\J)	.
4GG-/)	.	.	.	4r	.
=70	=70	=70	=70	=70	=70
(4FF/	.	1A 1f	.	4r	.
4AA/	.	.	.	8cc'\L	.
.	.	.	.	8cc'\J	.
4C/	.	.	.	8cc/L	.
.	.	.	.	8f/J	.
4F\)	.	.	.	4r	.
=71	=71	=71	=71	=71	=71
(4G-\	.	1B- 1en	.	4r	.
4D-\	.	.	.	8dd-'\L	.
.	.	.	.	8dd-'\J	.
4BB-/	.	.	.	(8dd-/L	.
.	.	.	.	8en/J)	.
4GG-/)	.	.	.	4r	.
=72	=72	=72	=72	=72	=72
[1FF	>	[1C (1B-	>	2.G/ (2.en/	>
.	.	.	.	8g/L	.
.	.	.	.	8f/J)	.
=73	=73	=73	=73	=73	=73
2FF/]	.	2C/] 2A/)	.	2f/	.
2r	.	2r	.	2r	.
=74:|!|:	=74:|!|:	=74:|!|:	=74:|!|:	=74:|!|:	=74:|!|:
*>B	*>B	*>B	*>B	*>B	*>B
(1D	f	(2.A/	f	(2.f#/	f
.	.	8c/L	.	8a/L	.
.	.	8B-/J)	.	8g/J)	.
=75	=75	=75	=75	=75	=75
2E-\)	.	2B-/	.	2g/	.
2r	.	2r	.	2r	.
=76	=76	=76	=76	=76	=76
[1E-	p	(2.B-/	p	(2.g/	p
.	.	8d-\L	.	8b-/L	.
.	.	8c\J)	.	8a-/J)	.
=77	=77	=77	=77	=77	=77
1E-]	.	(2c/	.	(2a-/	.
.	.	4B-/	.	4b-\	.
.	.	4A-/)	.	4cc\)	.
=78	=78	=78	=78	=78	=78
(2E-\	.	(2G/	.	(2.dd-\	.
4F\	.	4A-/	.	.	.
4G\)	.	4B-/)	.	8ff\L	.
.	.	.	.	8ee-\J)	.
=79	=79	=79	=79	=79	=79
2A-\	.	2c\	.	4cc'\	.
.	.	.	.	(4ee-\	.
4r	.	2r	.	4cc\	.
(4G-\	.	.	.	4b-\)	.
=80	=80	=80	=80	=80	=80
[1F)	.	(2.c\	.	(2.an/	.
.	.	8e-\L	.	8cc\L	.
.	.	8d-\J)	.	8b-\J)	.
=81	=81	=81	=81	=81	=81
1F]	.	(2d-\	.	(2b-\	.
.	.	4c\	.	4cc\	.
.	.	4B-/)	.	4dd-\)	.
=82	=82	=82	=82	=82	=82
(2F\	.	(2An/	.	(2.ee-\	.
4G\	.	4B-/	.	.	.
4An\)	.	4c/)	.	8gg-\L	.
.	.	.	.	8ff\J)	.
=83	=83	=83	=83	=83	=83
4B-\	.	4d-\	.	4dd-'\	.
(4d-\	.	(4d-\	.	(4ff\	<
4c\	.	4e-\	.	4ee-\	.
4B-\)	.	4f\)	.	4dd-\)	.
=84	=84	=84	=84	=84	=84
8A-\L	.	(1g-	.	(2.cc\	.
8A-\	.	.	.	.	.
8A-\	.	.	.	.	.
8A-\J	.	.	.	.	.
8A-\L	.	.	.	.	.
8A-\	.	.	.	.	.
8A-\	.	.	.	8ee-\L	.
8A-\J	.	.	.	8dd-\J)	.
=85	=85	=85	=85	=85	=85
8A-\L	.	(2f\)	<	(2dd-\	<
8A-\	.	.	.	.	.
8A-\	.	.	.	.	.
8A-\J	.	.	.	.	.
8A-\L	.	4e-\	.	4ee-\	.
8A-\	.	.	.	.	.
8A-\	.	4d-\)	.	4ff\)	.
8A-\J	.	.	.	.	.
=86	=86	=86	=86	=86	=86
8A-\L	.	(2c\	.	(2.gg-\	.
8A-\	.	.	.	.	.
8A-\	.	.	.	.	.
8A-\J	.	.	.	.	.
8B-\L	.	4d-\	.	.	.
8B-\	.	.	.	.	.
8c\	.	4e-\)	.	8bb-\L	.
8c\J	.	.	.	8aa-\J)	.
=87	=87	=87	=87	=87	=87
(2.An\	>	(2.c\	>	2ff\	.
.	.	.	.	2r	.
8c\L	.	8e-\L	.	.	.
8B-\J)	.	8d-\J)	.	.	.
=88	=88	=88	=88	=88	=88
2B-\	.	2d-\	.	(2.ff\	>
2r	.	2r	.	.	.
.	.	.	.	8aa-\L	.
.	.	.	.	8gg-\J)	.
=89	=89	=89	=89	=89	=89
(2.B-\	.	(2.d-\	.	2gg-\	.
.	.	.	.	2r	.
8d-\L	.	8f\L	.	.	.
8c\J)	.	8e-\J)	.	.	.
=90	=90	=90	=90	=90	=90
2c\	.	2e-\	.	(2.gg-\	>
2r	.	2r	.	.	.
.	.	.	.	8bb-\L	.
.	.	.	.	8aa-\J)	.
*clefC4	*clefC4	*	*	*	*
=91	=91	=91	=91	=91	=91
(2.c\	>	(2.e-\	.	2aa-\	.
.	.	.	.	2r	.
8e-\L	.	8g\L	.	.	.
8d-\J)	.	8f\J)	.	.	.
=92	=92	=92	=92	=92	=92
4d-\	.	4f\	.	(4aa-^\	.
4r	.	4r	.	8ccc-\L	<
.	.	.	.	8bb-\J)	.
(4dn^\	.	(4f^\	.	4bb-\	.
8f\L	.	8a-\L	.	4r	.
8e-\J)	.	8gn\J)	.	.	.
=93	=93	=93	=93	=93	=93
4e-\	<	4g\	<	(4bb-^\	.
4r	.	4r	.	8ddd-\L	.
.	.	.	.	8cccn\J)	.
(4en^\	.	(4g^\	.	4ccc\	.
8g\L	.	8b-\L	.	4r	.
8f\J)	.	8an\J)	.	.	.
=94	=94	=94	=94	=94	=94
4f\	.	4a\	.	(4ccc^\	.
4r	.	4r	.	8eee-\L	.
.	.	.	.	8dddn\J)	.
(4f#^\	.	(4a^\	.	4ddd\	.
8an\L	.	8cc\L	.	4r	.
8g\J)	.	8b-\J)	.	.	.
=95	=95	=95	=95	=95	=95
4g\	.	4b-\	.	(4ddd^\	.
4r	.	4r	.	8eee-\L	.
.	.	.	.	8ddd\J)	.
(4g^\	.	(4b-^\	.	4ddd\	.
8a\L	.	8cc\L	.	4r	.
8g\J)	.	8b-\J)	.	.	.
=96	=96	=96	=96	=96	=96
4fn\	.	4a\	.	(4ddd^\	.
4r	.	4r	.	8eee-\L	.
.	.	.	.	8ddd\J)	.
(4f^\	.	(4a^\	.	4ddd\	.
8g\L	.	8b-\L	.	4r	.
8f\J)	.	8a\J)	.	.	.
=97	=97	=97	=97	=97	=97
4e-\	.	4g\	.	(4ccc^\	.
4r	.	4r	.	8ddd\L	.
.	.	.	.	8ccc\J)	.
(4e-^\	.	(4g^\	.	4ccc\	.
8f\L	.	8a\L	.	4r	.
8e-\J)	.	8g\J)	.	.	.
=98	=98	=98	=98	=98	=98
4d\	.	4f\	.	(4bb-^\	.
4r	.	4r	.	8ccc\L	.
.	.	.	.	8bb-\J)	.
(4d^\	.	(4f^\	.	4bb-\	.
8e-\L	.	8g\L	.	4r	.
8d\J)	.	8f\J)	.	.	.
=99	=99	=99	=99	=99	=99
(2c\	p	(2e-\	p	(4aa\	p
.	.	.	.	8bb-\L	.
.	.	.	.	8aa\J)	.
2B-\	.	2d\	.	(4gg\	.
.	.	.	.	8aa\L	.
.	.	.	.	8gg\J)	.
=100	=100	=100	=100	=100	=100
2A\	.	2c\	.	(4ff#\	.
.	.	.	.	8gg\L	.
.	.	.	.	8ff#\J)	.
2G/)	.	2B-/)	.	(4cc#\	.
.	.	.	.	8dd\L	.
.	.	.	.	8cc#\J)	.
*clefF4	*clefF4	*	*	*	*
=101	=101	=101	=101	=101	=101
(4F#\	pp	(4A/	pp	2dd\	pp
8G\L	.	8B-/L	.	.	.
8F#\J)	.	8A/J)	.	.	.
2G\	.	2B-/	.	(4cc#\	.
.	.	.	.	8dd\L	.
.	.	.	.	8cc#\J)	.
=102	=102	=102	=102	=102	=102
(4F#\	.	(4A/	.	2dd\	.
8G\L	.	8B-/L	.	.	.
8F#\J)	.	8A/J)	.	.	.
2G\	.	2B-/	.	(4cc#\	.
.	.	.	.	8dd\L	.
.	.	.	.	8cc#\J)	.
=103	=103	=103	=103	=103	=103
(4D\	>	(4F#/	>	2dd\	.
8E-\L	.	8G/L	.	.	.
8D\J)	.	8F#/J)	.	.	.
2E-\	.	2G/	.	(4c#/	>
.	.	.	.	8d/L	.
.	.	.	.	8c#/J)	.
=104	=104	=104	=104	=104	=104
(4D\	.	(4F#/	.	2d/	.
8E-\L	.	8G/L	.	.	.
8D\J)	.	8F#/J)	.	.	.
2E-\	.	2G/	.	(4c#/	.
.	.	.	.	8d/L	.
.	.	.	.	8c#/J)	.
=105	=105	=105	=105	=105	=105
2D\	.	2F#/	.	(2.d/	.
2r	.	2r	.	.	.
.	.	.	.	8f#/L	.
.	.	.	.	8a/J	.
=106	=106	=106	=106	=106	=106
1r	.	1r	.	4cc#\	.
.	.	.	.	4dd\	.
.	.	.	.	4ff#\	.
.	.	.	.	4gg#\)	.
=107	=107	=107	=107	=107	=107
(1c	p	8d\L	p	(2.aa\	>
.	.	8d\	.	.	.
.	.	8d\	.	.	.
.	.	8d\J	.	.	.
.	.	8d\L	.	.	.
.	.	8d\	.	.	.
.	.	8d\	.	4bb-\)	.
.	.	8d\J	.	.	.
=108	=108	=108	=108	=108	=108
1B-)	.	8d\L	.	(2aa\	.
.	.	8d\	.	.	.
.	.	8d\	.	.	.
.	.	8d\J	.	.	.
.	.	8d\L	.	2gg\)	.
.	.	8d\	.	.	.
.	.	8d\	.	.	.
.	.	8d\J	.	.	.
=109	=109	=109	=109	=109	=109
(1A	.	8c\L	.	([2ff#\	.
.	.	8c\	.	.	.
.	.	8c\	.	.	.
.	.	8c\J	.	.	.
.	.	8c\L	.	8ff#\L]	.
.	.	8c\J	.	8aa\	.
.	.	8f#\L	.	8ccc\	.
.	.	8f#\J	.	8eee-\J)	.
=110	=110	=110	=110	=110	=110
1B-)	.	8g\L	.	(2ccc#\	.
.	.	8g\	.	.	.
.	.	8g\	.	.	.
.	.	8g\J	.	.	.
.	.	8d\L	.	2ddd\)	.
.	.	8d\	.	.	.
.	.	8d\	.	.	.
.	.	8d\J	.	.	.
=111	=111	=111	=111	=111	=111
(1c	.	8d\L	.	(2.aa\	.
.	.	8d\	.	.	.
.	.	8d\	.	.	.
.	.	8d\J	>	.	.
.	.	8e-\L	.	.	.
.	.	8e-\	.	.	.
.	.	8e-\	.	8cccn\L	.
.	.	8e-\J	.	8bb-\J)	.
=112	=112	=112	=112	=112	=112
1B-)	.	8d\L	.	2aa\	.
.	.	8d\	.	.	.
.	.	8d\	.	.	.
.	.	8d\J	.	.	.
.	.	8d\L	.	2gg\	.
.	.	8d\	.	.	.
.	.	8d\	.	.	.
.	.	8d\J	.	.	.
=113	=113	=113	=113	=113	=113
(1e-	.	8f\L	.	([2a/	.
.	.	8f\	.	.	.
.	.	8f\	.	.	.
.	.	8f\J	.	.	.
.	.	8f\L	.	8a\L]	.
.	.	8f\J	.	8cc\	.
.	.	8a\L	.	8ee-\	.
.	.	8a\J	.	8gg\J)	.
=114	=114	=114	=114	=114	=114
1d)	.	8b-\L	.	(2een\	.
.	.	8b-\	.	.	.
.	.	8b-\	.	.	.
.	.	8b-\J	.	.	.
.	.	8f\L	.	2ff\)	.
.	.	8f\	.	.	.
.	.	8f\	.	.	.
.	.	8f\J	.	.	.
=115	=115	=115	=115	=115	=115
(1A	.	8f\L	.	([2f/	.
.	.	8f\	.	.	.
.	.	8f\	.	.	.
.	.	8f\J	.	.	.
.	.	8f\L	.	8f/L]	.
.	.	8f\	.	8a/	.
.	.	8f\	.	8cc/	.
.	.	8f\J	.	8ee-/J)	.
=116	=116	=116	=116	=116	=116
1B-)	.	8f\L	.	(2cc#\	.
.	.	8f\	.	.	.
.	.	8f\	.	.	.
.	.	8f\J	.	.	.
.	.	8f\L	.	2dd\)	.
.	.	8f\	.	.	.
.	.	8f\	.	.	.
.	.	8f\J	.	.	.
=117	=117	=117	=117	=117	=117
(1e-	.	8f\L	.	([2a/	.
.	.	8f\	.	.	.
.	.	8f\	.	.	.
.	.	8f\J	.	.	.
.	.	8f\L	.	8a\L]	.
.	.	8f\	.	8cc\	.
.	.	8f\	.	8ee-\	.
.	.	8f\J	.	8gg\J)	.
=118	=118	=118	=118	=118	=118
1d)	.	8f\L	.	(4gg\	.
.	.	8f\	.	.	.
.	.	8f\	.	4een\	.
.	.	8f\J	.	.	.
.	.	8f\L	.	2ff\)	.
.	.	8f\	.	.	.
.	.	8f\	.	.	.
.	.	8f\J	.	.	.
=119	=119	=119	=119	=119	=119
(1A	.	8f\L	.	([2f/	.
.	.	8f\	.	.	.
.	.	8f\	.	.	.
.	.	8f\J	.	.	.
.	.	8f\L	.	8f/L]	.
.	.	8f\	.	8a/	.
.	.	8f\	.	8cc/	.
.	.	8f\J	.	8ee-/J)	.
=120	=120	=120	=120	=120	=120
1B-)	.	8f\L	.	(4ee-\	.
.	.	8f\	.	.	.
.	.	8f\	.	4cc#\	.
.	.	8f\J	.	.	.
.	.	8f\L	.	2dd\)	.
.	.	8f\	.	.	.
.	.	8f\	.	.	.
.	.	8f\J	.	.	.
=121	=121	=121	=121	=121	=121
(2e-\	<	(2g\	<	(4ccn\	<
.	.	.	.	2ee-\	>
(2f\)	>	2a-\)	>	.	.
.	.	.	.	4bn\)	.
=122	=122	=122	=122	=122	=122
(2e-\)	<	(2g\	<	(4cc\	<
.	.	.	.	2ee-\	>
2f\)	>	2a-\)	>	.	.
.	.	.	.	4bn\)	.
=123	=123	=123	=123	=123	=123
(2e-\	<	(2g\	<	(4cc\	<
.	.	.	.	2gg\	.
2en\)	.	2dd-\)	.	.	.
.	.	.	.	[4bb-\)	.
*clefC4	*clefC4	*	*	*	*
=124	=124	=124	=124	=124	=124
(2f\	>	(2cc\	>	(4bb-\]	>
.	.	.	.	2aa\	.
2g\	.	2b-\	.	.	.
.	.	.	.	[4gg\)	.
=125	=125	=125	=125	=125	=125
2a\	.	2cc\	.	(4gg\]	.
.	.	.	.	2ff\	.
2g\)	.	2b-\)	.	.	.
.	.	.	.	4een\)	.
=126	=126	=126	=126	=126	=126
[1f	>	[1a	>	([2ee-\	<
.	.	.	.	8ee-\L]	.
.	.	.	.	8dd\	.
.	.	.	.	8ff\	.
.	.	.	.	8ee-\J)	.
=127	=127	=127	=127	=127	=127
2f\]	.	(2.a\]	.	(2gg\	>
2r	.	.	.	8ff\L	.
.	.	.	.	8ee-\	.
.	.	4e-\)	.	8dd\	.
.	.	.	.	8cc\J)	.
*clefF4	*clefF4	*	*	*	*
=128	=128	=128	=128	=128	=128
[1B-	p	(8d\L	p	([2b-\	p
.	.	8f\	.	.	.
.	.	8d\	.	.	.
.	.	8f\J)	.	.	.
.	.	(8d\L	.	8b-\L]	.
.	.	8f\	.	8dd\)	.
.	.	8e-\	.	8cc'\	.
.	.	8c\J)	.	8a'\J	.
=129	=129	=129	=129	=129	=129
(2.B-\]	.	(8d\L	.	4b-'\	.
.	.	8f\	.	.	.
.	.	8b-\	.	4dd'\	.
.	.	8f\J)	.	.	.
.	.	(8d\L	.	4ff'\	.
.	.	8f\	.	.	.
4A\)	.	8c\	.	4r	.
.	.	8f\J)	.	.	.
=130	=130	=130	=130	=130	=130
4G'\	.	(8B-\L	.	(2.bb-\	>
.	.	8d\	.	.	.
4B-'\	.	8g\	.	.	.
.	.	8d\J)	.	.	.
4d'\	.	(8B-\L	.	.	.
.	.	8d\	.	.	.
4En\	.	8B-\	.	8aa\L	.
.	.	8d\J)	.	8gg\J)	.
=131	=131	=131	=131	=131	=131
4F\	.	(8F/L	.	(8gg\L	.
.	.	8d/)	.	8ff\)	.
4r	.	8c'/	.	8ee-'\	.
.	.	8B-'/J	.	8dd'\J	.
4FF/	.	(8f\L	.	(8dd\L	.
.	.	8e-\)	.	8cc\)	.
4r	.	8d'\	.	8b-'\	.
.	.	8c'\J	.	8a'\J	.
=132	=132	=132	=132	=132	=132
[1B-	.	(8d\L	.	([2b-\	.
.	.	8f\	.	.	.
.	.	8d\	.	.	.
.	.	8f\J)	.	.	.
.	.	(8d\L	.	8b-\L]	.
.	.	8f\)	.	8dd\)	.
.	.	8e-'\	.	8cc'\	.
.	.	8c'\J	.	8a'\J	.
=133	=133	=133	=133	=133	=133
(2.B-\]	.	(8d\L	.	4b-'\	.
.	.	8f\	.	.	.
.	.	8b-\	.	4dd'\	.
.	.	8f\J)	.	.	.
.	.	(8d\L	.	4ff'\	.
.	.	8f\	.	.	.
4A\)	.	8c\	.	4r	.
.	.	8f\J)	.	.	.
=134	=134	=134	=134	=134	=134
4G'\	.	(8B-\L	.	(2.bb-\	>
.	.	8d\	.	.	.
4B-'\	.	8g\	.	.	.
.	.	(8d\J)	.	.	.
4d'\	.	8B-\L	.	.	.
.	.	8d\	.	.	.
4En'\	.	8B-\	.	8aa\L	.
.	.	8d\J)	.	8gg\J)	.
=135	=135	=135	=135	=135	=135
4F\	.	(8F/L	.	(8gg\L	.
.	.	8d/)	.	8ff\)	.
4r	.	8c'/	.	8ee-'\	.
.	.	8B-'/J	.	8dd'\J	.
4FF/	.	(8f\L	.	(8dd\L	.
.	.	8e-\)	.	8cc\)	.
4r	.	8d'\	.	8b-'\	.
.	.	8c'\J	.	8a'\J	.
=136	=136	=136	=136	=136	=136
4BB-'/	f	4B-'/	f	4b-'\	f
4D'\	.	4d'\	.	4dd'\	.
4F'\	.	4f'\	.	4ff'\	.
4r	.	4r	.	4r	.
=137	=137	=137	=137	=137	=137
4D\	.	4d\	.	4dd\	.
(8.F\L	.	(8.f\L	.	(8.ff\L	.
32En\LL	.	32en\LL	.	32een\LL	.
32F\JJJ)	.	32f\JJJ)	.	32ff\JJJ)	.
4B-\	.	4b-\	.	4bb-\	.
4r	.	4r	.	4r	.
=138	=138	=138	=138	=138	=138
(2B-\	p	[2F/ (2d/	p	12bb-'\L	.
.	.	.	.	12ddd'\	.
.	.	.	.	12ccc'\J	.
.	.	.	.	12bb-'\L	.
.	.	.	.	12aa'\	.
.	.	.	.	12gg'\J	.
4A\)	.	4F/] 4e-/)	.	12ff'\L	.
.	.	.	.	12gg'\	.
.	.	.	.	12ff'\J	.
4e-\	.	4A/	.	12ee-'\L	.
.	.	.	.	12dd'\	.
.	.	.	.	12cc'\J	.
=139	=139	=139	=139	=139	=139
4BB-'/	f	4B-'/	f	4b-'\	f
4D'\	.	4d'\	.	4dd'\	.
4F'\	.	4f'\	.	4ff'\	.
4r	.	4r	.	4r	.
=140	=140	=140	=140	=140	=140
4D\	.	4d\	.	4dd\	.
(8.F\L	.	(8.f\L	.	(8.ff\L	.
32En\LL	.	32en\LL	.	32een\LL	.
32F\JJJ)	.	32f\JJJ)	.	32ff\JJJ)	.
4A-\	.	4a-\	.	4aa-\	.
4r	.	4r	.	4r	.
=141	=141	=141	=141	=141	=141
[1BB-	p	(2f\	p	12aa-'\L	p
.	.	.	.	12bb-'\	.
.	.	.	.	12ccc'\J	.
.	.	.	.	12bb-'\L	.
.	.	.	.	12aa-'\	.
.	.	.	.	12gg'\J	.
.	.	2d\)	.	12ff'\L	.
.	.	.	.	12gg'\	.
.	.	.	.	12aa-'\J	.
.	.	.	.	12gg'\L	.
.	.	.	.	12ff'\	.
.	.	.	.	12ee-'\J	.
=142	=142	=142	=142	=142	=142
1BB-]	.	(2f\	.	12dd'\L	.
.	.	.	.	12ee-'\	.
.	.	.	.	12ff'\J	.
.	.	.	.	12ee-'\L	.
.	.	.	.	12dd'\	.
.	.	.	.	12cc'\J	.
.	.	2a-\)	.	12b-'\L	.
.	.	.	.	12cc'\	.
.	.	.	.	12b-'\J	.
.	.	.	.	12a-'/L	.
.	.	.	.	12g'/	.
.	.	.	.	12f'/J	.
=143	=143	=143	=143	=143	=143
4E-\	.	8g\L	.	4e-/	.
.	.	8e-\	.	.	.
4r	.	8e-\	.	4r	.
.	.	8e-\J	.	.	.
4r	.	8e-\L	.	4r	.
.	.	8e-\	.	.	.
4E-\	.	8e-\	.	4ee-\	.
.	.	8e-\J	.	.	.
=144	=144	=144	=144	=144	=144
(1d-	.	8e-\L	.	(2.bb-\	>
.	.	8e-\	.	.	.
.	.	8e-\	.	.	.
.	.	(8e-\J	.	.	.
.	.	8e-\L	.	.	.
.	.	8e-\	.	.	.
.	.	8e-\)	.	4ccc\)	.
.	.	8e-\J	.	.	.
=145	=145	=145	=145	=145	=145
(2.c\)	.	8e-\L	.	(2bb-\	.
.	.	8e-\	.	.	.
.	.	8e-\	.	.	.
.	.	8e-\J	.	.	.
.	.	8e-\L	.	4aa-\	.
.	.	8e-\	.	.	.
4B-\)	.	8e-\	.	4gg\)	.
.	.	8e-\J	.	.	.
=146	=146	=146	=146	=146	=146
2A-\	.	8e-\L	.	2ff\	.
.	.	8e-\	.	.	.
.	.	8e-\	.	.	.
.	.	8e-\J	.	.	.
2B-\	.	8e-\L	.	(4.gg\	.
.	.	8e-\	.	.	.
.	.	8e-\	.	.	.
.	.	8e-\J	.	16ff\LL	.
.	.	.	.	16gg\JJ)	.
=147	=147	=147	=147	=147	=147
2c\	.	8e-\L	.	2aa-\	.
.	.	8e-\	.	.	.
.	.	8e-\	.	.	.
.	.	8e-\J	.	.	.
4r	.	8e-\L	.	4r	.
.	.	8e-\	.	.	.
4E-\	.	8e-\	.	4ee-\	.
.	.	8e-\J	.	.	.
=148	=148	=148	=148	=148	=148
(1d-	.	8e-\L	.	(2.bb-\	>
.	.	8e-\	.	.	.
.	.	8e-\	.	.	.
.	.	8e-\J	.	.	.
.	.	8f-\L	.	.	.
.	.	8f-\	.	.	.
.	.	8f-\	.	4ccc\)	.
.	.	8f-\J	.	.	.
=149	=149	=149	=149	=149	=149
(2c\)	.	8e-\L	.	(2bb-\	.
.	.	8e-\	.	.	.
.	.	8e-\	.	.	.
.	.	8e-\J	.	.	.
4c-\	.	8e-\L	.	4aa-\	.
.	.	8e-\	.	.	.
4B-\)	.	8e-\	.	4gg\)	.
.	.	8e-\J	.	.	.
=150	=150	=150	=150	=150	=150
2A-\	>	8e-\L	.	(2ff\	.
.	.	8e-\	.	.	.
.	.	8e-\	.	.	.
.	.	8e-\J	.	.	.
(2An\	.	8e-\L	.	(2gg-\)	.
.	.	8e-\	.	.	.
.	.	8e-\	.	.	.
.	.	8e-\J	.	.	.
=151	=151	=151	=151	=151	=151
4B-\)	.	(8d\L	.	4ff\)	.
.	.	8B-\)	.	.	.
4r	.	8B-'\	.	4r	.
.	.	8B-'\J	.	.	.
4r	.	4B-/	.	4r	.
(4g\	p	(4b-\	p	(4bb-\	p
=152	=152	=152	=152	=152	=152
4g-\	>	4cc\	.	4aan\	.
4f\	.	4dd\	.	4aa-\	.
4e-\	.	2ee-\)	>	4gg\	.
4An\	.	.	.	4gg-\	.
=153	=153	=153	=153	=153	=153
4B-\)	.	(8dd\L	.	4ff\)	.
.	.	8b-\)	.	.	.
4r	.	8b-'\	.	4r	.
.	.	8b-'\J	.	.	.
4r	.	4b-\	.	4r	.
(4G\	.	(4B-/	.	(4b-/	.
=154	=154	=154	=154	=154	=154
4G-\	.	4c\	.	4an/	.
4F\	.	4d\	.	4a-/	.
4E-\	.	(2e-\)	>	4g/	.
4AAn/	.	.	.	4g-/	.
=155	=155	=155	=155	=155	=155
4BB-/)	.	4d\)	.	4f/)	.
4r	.	4r	.	4r	.
2r	.	2r	.	2r	.
=156	=156	=156	=156	=156	=156
1r	.	1r	.	(4B-/	p
.	.	.	.	4c#/	.
.	.	.	.	4d/	.
.	.	.	.	4f/)	.
=157	=157	=157	=157	=157	=157
4r	.	4r	.	(4an/	.
(4B-\	p	(4d\	p	4b-\	.
4F\	.	4B-/	.	4dd\	.
4D\)	.	4F/)	.	4ff\)	.
=158	=158	=158	=158	=158	=158
8C/	.	8E-/	.	(8ff\L	.
8r	.	8r	.	16a\Jk)	.
.	.	.	.	16r	.
(4c'\	.	(4e-'\	.	8a'/L	.
.	.	.	.	8b-'/J	.
4c'\	.	4e-'\	.	8a'/L	.
.	.	.	.	8b-'/	.
4c'\)	.	4e-'\)	.	8a'/	.
.	.	.	.	8b-'/J	.
=159	=159	=159	=159	=159	=159
4c\	.	4e-\	.	4a/	.
4r	.	4r	.	4r	.
2r	.	2r	.	([4gg\	p
.	.	.	.	24gg\LL]	.
.	.	.	.	24ff\	.
.	.	.	.	24ee-\	.
.	.	.	.	24dd\	.
.	.	.	.	24cc\	.
.	.	.	.	24b-\JJ)	.
=160	=160	=160	=160	=160	=160
2r	.	2r	.	8a/	.
.	.	.	.	8r	.
.	.	.	.	4r	.
([4G\	f	([4g\	f	([4g/	f
24G\LL]	.	24g\LL]	.	24g/LL]	.
24F\	.	24f\	.	24f/	.
24E-\	.	24e-\	.	24e-/	.
24D\	.	24d\	.	24d/	.
24C\	.	24c\	.	24c/	.
24BB-\JJ)	.	24B-\JJ)	.	24B-/JJ)	.
=161	=161	=161	=161	=161	=161
8AA/	.	8A/	.	8A/	.
8r	.	8r	.	8r	.
4r	.	4r	.	(4c/	p
2r	.	2r	.	4e-/	.
.	.	.	.	4f/)	.
=162	=162	=162	=162	=162	=162
4r	.	4r	.	(4a/	.
(4c\	p	(4e-\	p	4cc\	.
4A\	.	4c\	.	4ee-\	.
4E-\)	.	4A/)	.	4gg\)	.
=163	=163	=163	=163	=163	=163
8D\	.	8B-/	.	(8gg\L	.
8r	.	8r	.	16b-\Jk)	.
.	.	.	.	16r	.
(4d'\	.	(4f'\	.	8b-'\L	.
.	.	.	.	8cc'\J	.
4d'\	.	4f'\	.	8b-'\L	.
.	.	.	.	8cc'\	.
4d'\)	.	4f'\)	.	8b-'\	.
.	.	.	.	8cc'\J	.
=164	=164	=164	=164	=164	=164
4d\	.	4f\	.	4b-\	.
4r	.	4r	.	4r	.
2r	.	2r	.	([4dd\	p
.	.	.	.	8dd\L]	.
.	.	.	.	32cc\LL	.
.	.	.	.	32b-\	.
.	.	.	.	32a\	.
.	.	.	.	32g\JJJ)	.
=165	=165	=165	=165	=165	=165
2r	.	2r	.	8f/	.
.	.	.	.	8r	.
.	.	.	.	4r	.
([4B-\	f	([4b-\	f	([4b-/	f
32B-\LLL]	.	32b-\LLL]	.	32b-/LLL]	.
32A\	.	32a\	.	32a/	.
32G\	.	32g\	.	32g/	.
32F\	.	32f\	.	32f/	.
32E-\	.	32e-\	.	32e-/	.
32D\	.	32d\	.	32d/	.
32C\	.	32c\	.	32c/	.
32BB-\JJJ)	.	32B-\JJJ)	.	32B-/JJJ)	.
=166	=166	=166	=166	=166	=166
4AA-/	.	4A-/	.	(8A-/L	.
.	.	.	.	8B-/)	.
(4A-'\	p	4d'\ (4b-'\	p	8d'/	.
.	.	.	.	8f'/J	.
4A-'\	.	4d'\ 4b-'\	.	(8b-\L	.
.	.	.	.	8dd\)	.
4A-'\)	.	4d'\ 4b-'\)	.	8ff'\	.
.	.	.	.	8bb-'\J	.
=167	=167	=167	=167	=167	=167
(8GG/L	f	(8B-\L	f	(2bb-\	>
8BB-/)	.	8e-\)	.	.	.
8E-'/	.	8g'\	.	.	.
8G'/J	.	8b-'\J	.	.	.
(8B-\L	.	(8ee-\L	.	4gg\	.
8e-\)	.	8gg\)	.	.	.
8g'\	.	8bb-'\	.	4ee-\)	.
8G'\J	.	8b-'\J	.	.	.
=168	=168	=168	=168	=168	=168
4F\	p	(8b-\L	p	(8dd\L	p
.	.	8dd\)	.	8ff\)	.
4r	.	8ee-'\	.	8gg'\	.
.	.	8dd'\J	.	8ff'\J	.
4FF/	.	(8dd\L	.	(8ff\L	.
.	.	8cc\)	.	8ee-\)	.
4r	.	8b-'\	.	8dd'\	.
.	.	8f'\J	.	8cc'\J	.
=169	=169	=169	=169	=169	=169
4BB-/	.	8d\L	.	4b-\	.
.	.	8f\	.	.	.
4r	.	8f\	.	4r	.
.	.	8f\J	.	.	.
.	.	.	.	(b-q/LLL	.
.	.	.	.	ccq/JJJ	.
4r	.	8f\L	.	4dd'\)	.
.	.	8f\	.	.	.
.	.	.	.	(b-q/LLL	.
.	.	.	.	ccq/JJJ	.
4B-\	.	8f\	.	4dd'\)	.
.	.	8f\J	.	.	.
=170	=170	=170	=170	=170	=170
(2A\	.	8f\L	.	(4.ee-\	.
.	.	8f\	.	.	.
.	.	8f\	.	.	.
.	.	8f\J	.	16ff\LL	.
.	.	.	.	16ee-\JJ	.
4c\	.	8f\L	.	8dd\L	.
.	.	8f\	.	8cc\	.
4e-\)	.	8f\	.	8b-\	.
.	.	8f\J	.	8a\J)	.
=171	=171	=171	=171	=171	=171
2d\	.	8f\L	.	(4cc\	.
.	.	8f\	.	.	.
.	.	8f\	.	8b-\)	.
.	.	8f\J	.	8r	.
(B-q/LLL	.	.	.	.	.
cq/JJJ)	.	.	.	.	.
4d'\	.	8f\L	.	(4ff\	.
.	.	8f\	.	.	.
(B-q/LLL	.	.	.	.	.
cq/JJJ)	.	.	.	.	.
4d'\	.	8f\	.	4b-\)	.
.	.	8f\J	.	.	.
=172	=172	=172	=172	=172	=172
(4.e-\	.	8f\L	.	(2a/	.
.	.	8f\	.	.	.
.	.	8f\	.	.	.
16f\LL	.	8f\J	.	.	.
16e-\JJ	.	.	.	.	.
8d\L	.	8f\L	.	8b-\L	.
8c\	.	8f\	.	8cc\	.
8B-\	.	8f\	.	8dd\	.
8A\J)	.	8f\J	.	8ee-\J)	.
=173	=173	=173	=173	=173	=173
(4c\	.	8f\L	.	(4ee-\	.
.	.	8f\	.	.	.
8B-\)	.	8f\	.	8dd\)	.
8r	.	8f\J	.	8r	.
(2G\	.	2bn\	.	(4.ff\	.
.	.	.	.	16gg\LL	.
.	.	.	.	16ff\JJ)	.
=174	=174	=174	=174	=174	=174
2C/)	.	(4.b-\	.	2een\	.
.	.	16cc\LL	.	.	.
.	.	16b-\JJ)	.	.	.
(2F\	.	2a\	.	(4.ee-\	.
.	.	.	.	16ff\LL	.
.	.	.	.	16ee-\JJ)	.
=175	=175	=175	=175	=175	=175
(4BB-/)	.	(4.a-\	.	(2dd\	<
4BBn/)	.	.	.	.	.
.	.	16b-\LL	.	.	.
.	.	16a-\JJ)	.	.	.
(4C/	>	(4g\	>	(8ff\L)	>
.	.	.	.	8ee-\	.
8D\L	.	8f\L	.	8dd\	.
8E-\J)	.	8e-\J)	.	8cc\J)	.
=176	=176	=176	=176	=176	=176
4F\	.	(8d\L	.	(8b-\L	.
.	.	8f\)	.	8dd\)	.
4r	.	8e-'\	.	8gg'\	.
.	.	8d'\J	.	8ff'\J	.
4FF/	.	(8d/L	.	(8ff\L	.
.	.	8c/)	.	8ee-\)	.
4r	.	8B-'/	.	8dd'\	.
.	.	8A'/J	.	8cc'\J	.
=177	=177	=177	=177	=177	=177
4BB-/	.	4B-/	.	8b-\L	.
.	.	.	.	8ff\	.
4r	.	4r	.	8ff\	.
.	.	.	.	8ff\J	.
.	.	(b-q/LLL	.	.	.
.	.	ccq/JJJ	.	.	.
4r	.	4dd'\)	.	8ff\L	.
.	.	.	.	8ff\	.
.	.	(b-q/LLL	.	.	.
.	.	ccq/JJJ)	.	.	.
4B-\	.	4dd'\	.	8ff\	.
.	.	.	.	8ff\J	.
=178	=178	=178	=178	=178	=178
(2A\	.	(4.ee-\	.	8ff\L	.
.	.	.	.	8ff\	.
.	.	.	.	8ff\	.
.	.	16ff\LL	.	8ff\J	.
.	.	16ee-\JJ	.	.	.
4c\	.	8dd\L	.	8ff\L	.
.	.	8cc\	.	8ff\	.
4e-\)	.	8b-\	.	8ff\	.
.	.	8a\J)	.	8ff\J	.
=179	=179	=179	=179	=179	=179
2d\	.	(4cc\	.	8ff\L	.
.	.	.	.	8ff\	.
.	.	8b-\)	.	8ff\	.
.	.	8r	.	8ff\J	.
(B-q/LLL	.	.	.	.	.
cq/JJJ	.	.	.	.	.
4d'\)	.	(4ff\	.	8ff\L	.
.	.	.	.	8ff\	.
(B-q/LLL	.	.	.	.	.
cq/JJJ)	.	.	.	.	.
4d'\	.	4b-\)	.	8ff\	.
.	.	.	.	8ff\J	.
=180	=180	=180	=180	=180	=180
(4.e-\	.	(2a\	.	8ff\L	.
.	.	.	.	8ff\	.
.	.	.	.	8ff\	.
16f\LL	.	.	.	8ff\J	.
16e-\JJ	.	.	.	.	.
8d\L	.	8b-\L	.	8ff\L	.
8c\	.	8cc\	.	8ff\	.
8B-\	.	8dd\	.	8ff\	.
8A\J)	.	8ee-\J)	.	8ff\J	.
=181	=181	=181	=181	=181	=181
(4c\	.	(4ee-\	.	8ff\L	.
.	.	.	.	8ff\	.
8B-\)	.	8dd\)	.	8ff\	.
8r	.	8r	.	8ff\J	.
(2G\	.	2bn\	.	(4.ff\	.
.	.	.	.	16gg\LL	.
.	.	.	.	16ff\JJ)	.
=182	=182	=182	=182	=182	=182
2C/)	.	(4.b-\	.	2een\	.
.	.	16cc\LL	.	.	.
.	.	16b-\JJ)	.	.	.
(2F\	.	2a\	.	(4.ee-\	.
.	.	.	.	16ff\LL	.
.	.	.	.	16ee-\JJ)	.
=183	=183	=183	=183	=183	=183
(4BB-/)	<	(4.a-\	.	(2dd\	<
4BBn/)	.	.	.	.	.
.	.	16b-\LL	.	.	.
.	.	16a-\JJ)	.	.	.
(4C/	>	(4g\	>	8ff\L	>
.	.	.	.	8ee-\	.
8D\L	.	8f\L	.	8dd\	.
8E-\J)	.	8e-\J)	.	8cc\J)	.
=184	=184	=184	=184	=184	=184
4F\	.	(8d\L	.	(8b-\L	.
.	.	8f\)	.	8dd\)	.
4r	.	8e-'\	.	8gg'\	.
.	.	8d'\J	.	8ff'\J	.
4FF/	.	(8d/L	.	(8ff\L	.
.	.	8c/)	.	8ee-\)	.
4r	.	8B-'/	.	8dd'\	.
.	.	8A'/J	.	8cc'\J	.
=185	=185	=185	=185	=185	=185
4BB-/	.	8B-/	.	12b-/L	.
.	.	.	.	12B-'/	.
.	.	8r	.	.	.
.	.	.	.	12d'/J	.
4r	.	12d\L	.	12f'/L	.
.	.	12f\	.	12b-'/	.
.	.	12b-\J	.	12dd'/J	.
12d\L	.	12dd\L	.	12ff'\L	<
12d\	.	12dd\	.	12ff'\	.
12d\J	.	12dd\J	.	12ff'\J	.
12d\L	<	12cc\L	.	12ff#\L	.
12d\	.	12cc\	.	12ff#\	.
12d\J	.	12cc\J	.	12ff#\J	.
=186	=186	=186	=186	=186	=186
12e-\L	.	12b-\L	.	12gg\L	.
12e-\	.	12b-\	.	12gg\	.
12e-\J	.	12b-\J	.	12gg\J	.
12f\L	>	12bn\L	>	12aa-\L	>
12f\	.	12b\	.	12aa-\	.
12f\J	.	12b\J	.	12aa-\J	.
12e-\L	.	12cc\L	.	12gg\L	.
12e-\	.	12cc\	.	12gg\	.
12e-\J	.	12cc\J	.	12gg\J	.
12Bn\L	.	12a-\L	.	12ffn\L	.
12B\	.	12a-\	.	12ff\	.
12B\J	.	12a-\J	.	12ff\J	.
=187	=187	=187	=187	=187	=187
8c\	.	8g\	.	8ee-\	.
8r	.	8r	.	8r	.
4r	.	4r	.	4r	.
.	.	ccq/LLL	.	(ee-q/LLL	.
.	.	ddq/JJJ	.	ffq/JJJ	.
4An\	pp	4ee-\	pp	4gg\)	pp
4r	.	8ee-'\L	.	8gg'\L	.
.	.	8ee-'\J	.	8gg'\J	.
=188	=188	=188	=188	=188	=188
4B-\	.	(8ee-\L	.	(8gg\L	.
.	.	8dd\J)	.	8ff\J)	.
8B-'\L	.	4r	.	4r	.
8B-'\J	.	.	.	.	.
.	.	(ccq/LLL	.	(ee-q/LLL	.
.	.	ddq/JJJ)	.	ffq/JJJ)	.
(8B-\L	.	4ee-\	.	4gg\	.
8A\J)	.	.	.	.	.
4r	.	8ee-'\L	.	8gg'\L	.
.	.	8ee-'\J	.	8gg'\J	.
=189	=189	=189	=189	=189	=189
4B-\	.	(8ee-\L	.	(8gg\L	.
.	.	8dd\J)	.	8ff\J)	.
8B-'\L	.	4r	.	4r	.
8B-'\J	.	.	.	.	.
.	.	(ccq/LLL	.	(ee-q/LLL	.
.	.	ddq/JJJ)	.	ffq/JJJ	.
(8B-\L	.	4ee-\	.	4gg\)	.
8A\J)	.	.	.	.	.
4r	.	8ee-\L	.	8gg\L	.
.	.	8ee-\J	.	8gg\J	.
*clefC4	*clefC4	*	*	*	*
=190	=190	=190	=190	=190	=190
4b-\	.	(8ee-^\L	.	(8gg^\L	.
.	.	8dd\J)	.	8ff\J)	.
8bn'\L	.	8ff'\L	.	8aa-'\L	.
8b'\J	.	8ff'\J	.	8aa-'\J	.
(8b^\L	.	8ff^\L	.	(8aa-^\L	.
8cc\J)	<	8ee-\J	<	8gg\J)	<
8a-'\L	.	8dd'\L	.	8ccc'\L	.
8a-'\J	.	8dd'\J	.	8ccc'\J	.
=191	=191	=191	=191	=191	=191
(8a-^\L	.	(8dd^\L	.	(8ccc^\L	.
8g\J)	.	8ee-\J)	.	8bb-\J)	.
8bn'\L	.	8ff'\L	.	8aa-'\L	.
(8b'\J	.	8ff'\J	.	8aa-'\J	.
8b^\L	.	8ff^\L	.	(8aa-^\L	.
8cc\J)	.	8ee-\J	.	8gg\J)	.
8a-'\L	.	8dd'\L	.	8ccc'\L	.
8a-'\J	.	8dd'\J	.	8ccc'\J	.
=192	=192	=192	=192	=192	=192
(8a-^\L	.	(8dd^\L	.	(8ccc^\L	.
8g\J)	.	8ee-\J)	.	8bb-\J)	.
8a-'\L	.	8dd'\L	.	8ccc'\L	.
8a-'\J	.	8dd'\J	.	8ccc'\J	.
(8a-^\L	.	(8dd^\L	.	(8ccc^\L	.
8g\J)	.	8ee-\J)	.	8bb-\J)	.
8a-'\L	.	8dd'\L	.	8ccc'\L	.
8a-'\J	.	8dd'\J	.	8ccc'\J	.
=193	=193	=193	=193	=193	=193
(2.a-\	>	(2.dd\	>	(2.ccc\	>
4d\)	.	4a-\)	.	4ccc-\)	.
=194	=194	=194	=194	=194	=194
4e-\	.	4g\	.	4bb-\	.
4r	.	4r	.	4r	.
4r	.	4r	.	4r	.
8en'\L	f	8dd-'\L	f	8b-'\ 8gg'\L	f
8e'\J	.	8dd-'\J	.	8b-'\ 8gg'\J	.
=195	=195	=195	=195	=195	=195
4f\	.	4ddn\	.	8b-\ (8gg\L	.
.	.	.	.	8ff\J)	.
4r	.	4r	.	4r	.
4F/	.	4c\ 4e-\	.	(8ff\L	.
.	.	.	.	8a\J)	.
4r	.	4r	.	4r	.
*clefF4	*clefF4	*	*	*	*
=196	=196	=196	=196	=196	=196
(4BB-/	pp	1d 1b-	pp	4b-\	pp
4D\	.	.	.	8ff'\L	.
.	.	.	.	8ff'\J	.
4F\	.	.	.	(8ff\L	.
.	.	.	.	8b-\J)	.
4B-\)	.	.	.	4r	.
=197	=197	=197	=197	=197	=197
(4c-\	.	1e- 1an	.	4r	.
4G-\	.	.	.	8gg-'\L	.
.	.	.	.	8gg-'\J	.
4E-\	.	.	.	(8gg-\L	.
.	.	.	.	8an\J)	.
4C-/)	.	.	.	4r	.
=198	=198	=198	=198	=198	=198
(4BB-/	.	1d 1b-	.	4r	.
4D\	.	.	.	8ff'\L	.
.	.	.	.	8ff'\J	.
4F\	.	.	.	(8ff\L	.
.	.	.	.	8b-\J)	.
4B-\)	.	.	.	4r	.
=199	=199	=199	=199	=199	=199
(4c-\	.	1e- 1a	.	4r	.
4G-\	.	.	.	8gg-'\L	.
.	.	.	.	8gg-'\J	.
4E-\	.	.	.	(8gg-\L	.
.	.	.	.	8an\J)	.
4C-/)	.	.	.	4r	.
=200	=200	=200	=200	=200	=200
[1BB-	>	[1F (1e-	>	2.c/ (2.a/	>
.	.	.	.	8cc\L	.
.	.	.	.	8b-\J)	.
=201	=201	=201	=201	=201	=201
2BB-/]	.	2F/] 2d/)	.	2b-\	.
2r	.	2r	.	2r	.
=	=	=	=	=	=
*-	*-	*-	*-	*-	*-
!!!ENC: Craig Stuart Sapp
!!!END: 2005/08/03/
